assets/cms-uploads/icon-archive.svg

<svg height="512pt" viewBox="0 0 512 512" width="512pt" xmlns="http://www.w3.org/2000/svg"><path d="m91 270-35.625 30-55.375-30 61-90 30 30zm0 0" fill="#47568c"/><path d="m421 270 35.625 30 55.375-30-61-90-30 30zm0 0" fill="#2c3b73"/><path d="m391 0v165h-270v-135h126.898438l8.101562-12 12-18zm0 0" fill="#ffda2d"/><path d="m391 0v165h-135v-147l12-18zm0 0" fill="#fdbf00"/><path d="m421 60v165h-330v-135h186.898438l20.101562-30zm0 0" fill="#fdbf00"/><path d="m421 60v165h-165v-135h21.898438l20.101562-30zm0 0" fill="#ff9100"/><path d="m451 120v225h-390v-195h246.898438l20.101562-30zm0 0" fill="#ffda2d"/><path d="m451 120v225h-195v-195h51.898438l20.101562-30zm0 0" fill="#fdbf00"/><path d="m512 270v242h-512v-242h196.902344l9.898437 30h98.398438l9.898437-30zm0 0" fill="#61729b"/><path d="m512 270v242h-256v-212h49.199219l9.898437-30zm0 0" fill="#47568c"/><path d="m181 360h150v30h-150zm0 0" fill="#ffda2d"/><path d="m256 360h75v30h-75zm0 0" fill="#fdbf00"/></svg>

<svg xmlns="http://www.w3.org/2000/svg" width="512pt" height="512pt" viewBox="0 0 512 512"><path fill="#47568c" d="M91 270l-35.625 30L0 270l61-90 30 30zm0 0"/><path fill="#2c3b73" d="M421 270l35.625 30L512 270l-61-90-30 30zm0 0"/><path fill="#ffda2d" d="M391 0v165H121V30h126.898L256 18l12-18zm0 0"/><path fill="#fdbf00" d="M391 0v165H256V18l12-18zm0 0"/><path fill="#fdbf00" d="M421 60v165H91V90h186.898L298 60zm0 0"/><path fill="#ff9100" d="M421 60v165H256V90h21.898L298 60zm0 0"/><path fill="#ffda2d" d="M451 120v225H61V150h246.898L328 120zm0 0"/><path fill="#fdbf00" d="M451 120v225H256V150h51.898L328 120zm0 0"/><path fill="#61729b" d="M512 270v242H0V270h196.902l9.899 30h98.398l9.899-30zm0 0"/><path fill="#47568c" d="M512 270v242H256V300h49.2l9.898-30zm0 0"/><path fill="#ffda2d" d="M181 360h150v30H181zm0 0"/><path fill="#fdbf00" d="M256 360h75v30h-75zm0 0"/></svg>
